;Generated with Cura_SteamEngine 14.09
G28 ; Home extruder
G1 Z5 F100
G1 Z0 F100
M106 S165 ; Turn on fan
G90 ; Absolute positioning
M82 ; Extruder in absolute mode
; Activate all used extruder
M104 T0 S200
G92 E0 ; Reset extruder position
; Wait for all used extruders to reach temperature
M109 T0 S200
T0
M83
G1 E10 F100
M82
G92 E0 ; Reset extruder position
M117 Vertex is printing
G1 F1000 Z5
;Layer count: 123
;LAYER:0
M106 S127
G0 F10800 X142.171 Y48.793 Z0.200
;TYPE:SKIRT
G1 F900 X181.321 Y48.793 E0.91149
G1 X181.321 Y155.930 E3.40587
G1 X182.546 Y157.815 E3.45821
G1 X183.265 Y158.929 E3.48908
G1 X184.559 Y162.305 E3.57325
G1 X185.052 Y163.538 E3.60417
G1 X185.625 Y167.165 E3.68966
G1 X185.857 Y168.536 E3.72203
G1 X185.590 Y173.643 E3.84110
G1 X184.285 Y178.518 E3.95860
G1 X181.993 Y183.017 E4.07615
G1 X178.815 Y186.939 E4.19368
G1 X174.894 Y190.115 E4.31116
G1 X170.397 Y192.406 E4.42866
G1 X165.523 Y193.712 E4.54614
G1 X160.483 Y193.977 E4.66364
G1 X155.496 Y193.186 E4.78120
G1 X150.787 Y191.378 E4.89864
G1 X146.554 Y188.630 E5.01614
G1 X142.985 Y185.062 E5.13364
G1 X140.235 Y180.829 E5.25116
G1 X138.426 Y176.115 E5.36872
G1 X137.637 Y171.132 E5.48618
G1 X137.833 Y167.388 E5.57347
G1 X137.908 Y166.066 E5.60429
G1 X138.868 Y162.486 E5.69059
G1 X139.211 Y161.210 E5.72135
G1 X140.922 Y157.851 E5.80912
G1 X141.533 Y156.677 E5.83993
G1 X142.171 Y155.889 E5.86354
G1 X142.171 Y48.793 E8.35695
G0 F10800 X142.521 Y49.143
G1 F900 X180.971 Y49.143 E9.25215
G1 X180.971 Y156.032 E11.74075
G1 X182.253 Y158.005 E11.79553
G1 X182.951 Y159.089 E11.82555
G1 X184.245 Y162.463 E11.90968
G1 X184.713 Y163.631 E11.93898
G1 X185.280 Y167.224 E12.02367
G1 X185.506 Y168.556 E12.05512
G1 X185.243 Y173.588 E12.17244
G1 X183.956 Y178.392 E12.28823
G1 X181.697 Y182.826 E12.40409
G1 X178.566 Y186.690 E12.51987
G1 X174.702 Y189.819 E12.63563
G1 X170.271 Y192.078 E12.75143
G1 X165.468 Y193.364 E12.86719
G1 X160.501 Y193.626 E12.98300
G1 X155.588 Y192.846 E13.09881
G1 X150.946 Y191.065 E13.21457
G1 X146.775 Y188.357 E13.33035
G1 X143.259 Y184.840 E13.44613
G1 X140.549 Y180.670 E13.56192
G1 X138.766 Y176.024 E13.67778
G1 X137.989 Y171.113 E13.79354
G1 X138.182 Y167.407 E13.87994
G1 X138.255 Y166.122 E13.90991
G1 X139.206 Y162.577 E13.99536
G1 X139.540 Y161.336 E14.02528
G1 X141.233 Y158.011 E14.11215
G1 X141.828 Y156.870 E14.14211
G1 X142.521 Y156.014 E14.16776
G1 X142.521 Y49.143 E16.65594
G0 F10800 X142.871 Y49.493
G1 F900 X180.621 Y49.493 E17.53484
G1 X180.621 Y156.136 E20.01771
G1 X181.959 Y158.195 E20.07488
G1 X182.637 Y159.248 E20.10404
G1 X183.920 Y162.591 E20.18740
G1 X184.373 Y163.725 E20.21583
G1 X184.951 Y167.381 E20.30201
G1 X185.154 Y168.577 E20.33025
G1 X184.895 Y173.533 E20.44580
G1 X183.627 Y178.266 E20.55988
G1 X181.402 Y182.634 E20.67401
G1 X178.318 Y186.442 E20.78810
G1 X174.511 Y189.524 E20.90213
G1 X170.145 Y191.749 E21.01622
G1 X165.413 Y193.016 E21.13027
G1 X160.520 Y193.274 E21.24435
G1 X155.679 Y192.507 E21.35847
G1 X151.106 Y190.751 E21.47252
G1 X146.997 Y188.083 E21.58658
G1 X143.532 Y184.619 E21.70065
G1 X140.862 Y180.510 E21.81474
G1 X139.106 Y175.933 E21.92887
G1 X138.340 Y171.095 E22.04292
G1 X138.532 Y167.426 E22.12846
G1 X138.602 Y166.178 E22.15756
G1 X139.544 Y162.667 E22.24219
G1 X139.868 Y161.463 E22.27122
G1 X141.545 Y158.171 E22.35724
G1 X142.122 Y157.063 E22.38632
G1 X142.871 Y156.138 E22.41403
G1 X142.871 Y49.493 E24.89695
G0 F10800 X143.221 Y49.843
G1 F900 X180.271 Y49.843 E25.75955
G1 X180.271 Y156.240 E28.23670
G1 X181.665 Y158.385 E28.29626
G1 X182.323 Y159.407 E28.32456
G1 X183.591 Y162.712 E28.40697
G1 X184.034 Y163.818 E28.43471
G1 X184.593 Y167.362 E28.51824
G1 X184.803 Y168.597 E28.54741
G1 X184.547 Y173.478 E28.66121
G1 X183.299 Y178.140 E28.77357
G1 X181.107 Y182.442 E28.88598
G1 X178.069 Y186.193 E28.99836
G1 X174.319 Y189.229 E29.11070
G1 X170.019 Y191.421 E29.22307
G1 X165.358 Y192.669 E29.33541
G1 X160.538 Y192.923 E29.44778
G1 X155.770 Y192.167 E29.56018
G1 X151.266 Y190.438 E29.67250
G1 X147.218 Y187.810 E29.78487
G1 X143.806 Y184.397 E29.89723
G1 X141.176 Y180.350 E30.00960
G1 X139.446 Y175.842 E30.12202
G1 X138.692 Y171.076 E30.23436
G1 X138.881 Y167.445 E30.31901
G1 X138.950 Y166.233 E30.34728
G1 X139.882 Y162.758 E30.43104
G1 X140.196 Y161.589 E30.45922
G1 X141.856 Y158.331 E30.54435
G1 X142.416 Y157.256 E30.57257
G1 X143.221 Y156.262 E30.60235
G1 X143.221 Y49.843 E33.08001
G0 F10800 X143.571 Y50.193
G1 F900 X179.921 Y50.193 E33.92631
G1 X179.921 Y156.343 E36.39771
G1 X181.371 Y158.575 E36.45968
G1 X182.010 Y159.566 E36.48713
G1 X183.256 Y162.817 E36.56819
G1 X183.694 Y163.911 E36.59563
G1 X184.254 Y167.461 E36.67930
G1 X184.451 Y168.618 E36.70662
G1 X184.200 Y173.423 E36.81865
G1 X182.970 Y178.014 E36.92931
G1 X180.812 Y182.251 E37.04001
G1 X177.820 Y185.944 E37.15067
G1 X174.127 Y188.934 E37.26130
G1 X169.893 Y191.092 E37.37194
G1 X165.303 Y192.321 E37.48257
G1 X160.557 Y192.571 E37.59322
G1 X155.861 Y191.827 E37.70391
G1 X151.426 Y190.124 E37.81452
G1 X147.439 Y187.536 E37.92519
G1 X144.079 Y184.176 E38.03582
G1 X141.490 Y180.190 E38.14648
G1 X139.786 Y175.751 E38.25718
G1 X139.043 Y171.058 E38.36780
G1 X139.231 Y167.464 E38.45159
G1 X139.297 Y166.289 E38.47899
G1 X140.220 Y162.849 E38.56192
G1 X140.525 Y161.715 E38.58926
G1 X142.167 Y158.492 E38.67347
G1 X142.710 Y157.449 E38.70085
G1 X143.571 Y156.386 E38.73270
G1 X143.571 Y50.193 E41.20509
G0 F10800 X143.921 Y50.543
G1 F900 X179.571 Y50.543 E42.03510
G1 X179.571 Y156.447 E44.50077
G1 X181.077 Y158.765 E44.56513
G1 X181.696 Y159.725 E44.59172
G1 X182.904 Y162.877 E44.67031
G1 X183.355 Y164.005 E44.69859
G1 X183.915 Y167.550 E44.78215
G1 X184.100 Y168.638 E44.80785
G1 X183.852 Y173.368 E44.91812
G1 X182.642 Y177.888 E45.02706
G1 X180.517 Y182.059 E45.13605
G1 X177.571 Y185.695 E45.24500
G1 X173.936 Y188.639 E45.35391
G1 X169.766 Y190.763 E45.46286
G1 X165.248 Y191.974 E45.57176
G1 X160.575 Y192.220 E45.68071
G1 X155.952 Y191.487 E45.78969
G1 X151.585 Y189.811 E45.89859
G1 X147.661 Y187.263 E46.00752
G1 X144.353 Y183.954 E46.11646
G1 X141.803 Y180.030 E46.22541
G1 X140.126 Y175.660 E46.33439
G1 X139.395 Y171.039 E46.44331
G1 X139.580 Y167.483 E46.52622
G1 X139.645 Y166.345 E46.55276
G1 X140.558 Y162.940 E46.63483
G1 X140.853 Y161.842 E46.66130
G1 X142.478 Y158.652 E46.74465
G1 X143.004 Y157.642 E46.77116
G1 X143.921 Y156.509 E46.80510
G1 X143.921 Y50.543 E49.27221
G0 F10800 X144.271 Y50.893
G1 F900 X179.221 Y50.893 E50.08592
G1 X179.221 Y156.551 E52.54586
G1 X180.783 Y158.956 E52.61263
G1 X181.382 Y159.884 E52.63834
G1 X182.589 Y163.031 E52.71682
G1 X183.015 Y164.098 E52.74356
G1 X183.568 Y167.599 E52.82609
G1 X183.748 Y168.658 E52.85109
G1 X183.505 Y173.313 E52.95962
G1 X182.313 Y177.761 E53.06683
G1 X180.222 Y181.867 E53.17411
G1 X177.322 Y185.446 E53.28136
G1 X173.744 Y188.344 E53.38856
G1 X169.640 Y190.435 E53.49580
G1 X165.193 Y191.626 E53.60298
G1 X160.593 Y191.868 E53.71023
G1 X156.043 Y191.147 E53.81748
G1 X151.745 Y189.497 E53.92467
G1 X147.882 Y186.989 E54.03190
G1 X144.626 Y183.733 E54.13911
G1 X142.117 Y179.871 E54.24633
G1 X140.465 Y175.569 E54.35362
G1 X139.746 Y171.021 E54.46082
G1 X139.930 Y167.502 E54.54287
G1 X139.992 Y166.401 E54.56854
G1 X140.896 Y163.031 E54.64977
G1 X141.182 Y161.968 E54.67540
G1 X142.789 Y158.812 E54.75786
G1 X143.298 Y157.835 E54.78351
G1 X144.271 Y156.633 E54.81951
G1 X144.271 Y50.893 E57.28136
G0 F10800 X144.621 Y51.243
G1 F900 X178.871 Y51.243 E58.07877
G1 X178.871 Y156.655 E60.53298
G1 X180.490 Y159.146 E60.60215
G1 X181.068 Y160.043 E60.62700
G1 X182.277 Y163.195 E60.70560
G1 X182.675 Y164.192 E60.73059
G1 X183.220 Y167.643 E60.81193
G1 X183.396 Y168.679 E60.83640
G1 X183.157 Y173.258 E60.94315
G1 X181.985 Y177.635 E61.04865
G1 X179.926 Y181.676 E61.15424
G1 X177.073 Y185.197 E61.25975
G1 X173.552 Y188.048 E61.36523
G1 X169.514 Y190.106 E61.47075
G1 X165.138 Y191.279 E61.57623
G1 X160.612 Y191.517 E61.68175
G1 X156.134 Y190.807 E61.78731
G1 X151.905 Y189.183 E61.89278
G1 X148.104 Y186.716 E61.99828
G1 X144.900 Y183.511 E62.10379
G1 X142.430 Y179.711 E62.20931
G1 X140.805 Y175.478 E62.31487
G1 X140.097 Y171.003 E62.42036
G1 X140.279 Y167.521 E62.50153
G1 X140.339 Y166.457 E62.52635
G1 X141.234 Y163.122 E62.60674
G1 X141.510 Y162.094 E62.63152
G1 X143.100 Y158.973 E62.71307
G1 X143.592 Y158.028 E62.73788
G1 X144.621 Y156.757 E62.77595
G1 X144.621 Y51.243 E65.23254
G0 F10800 X144.971 Y51.593
G1 F900 X178.521 Y51.593 E66.01365
G1 X178.521 Y156.758 E68.46211
G1 X180.196 Y159.336 E68.53369
G1 X180.754 Y160.203 E68.55769
G1 X181.929 Y163.267 E68.63410
G1 X182.336 Y164.285 E68.65962
G1 X182.864 Y167.634 E68.73856
G1 X183.045 Y168.699 E68.76371
G1 X182.809 Y173.203 E68.86871
G1 X181.656 Y177.509 E68.97250
G1 X179.631 Y181.484 E69.07636
G1 X176.825 Y184.948 E69.18015
G1 X173.361 Y187.753 E69.28393
G1 X169.388 Y189.778 E69.38775
G1 X165.083 Y190.931 E69.49151
G1 X160.630 Y191.166 E69.59533
G1 X156.225 Y190.467 E69.69917
G1 X152.065 Y188.870 E69.80291
G1 X148.325 Y186.442 E69.90673
G1 X145.173 Y183.290 E70.01051
G1 X142.744 Y179.551 E70.11432
G1 X141.145 Y175.387 E70.21817
G1 X140.449 Y170.984 E70.32195
G1 X140.629 Y167.540 E70.40225
G1 X140.687 Y166.512 E70.42622
G1 X141.572 Y163.212 E70.50576
G1 X141.839 Y162.220 E70.52968
G1 X143.411 Y159.133 E70.61034
G1 X143.887 Y158.220 E70.63431
G1 X144.971 Y156.881 E70.67442
G1 X144.971 Y51.593 E73.12574
G0 F10800 X145.321 Y51.943
G1 F900 X178.171 Y51.943 E73.89056
G1 X178.171 Y156.862 E76.33329
G1 X179.902 Y159.526 E76.40726
G1 X180.440 Y160.362 E76.43041
G1 X181.604 Y163.397 E76.50609
G1 X181.996 Y164.379 E76.53070
G1 X182.532 Y167.770 E76.61063
G1 X182.693 Y168.720 E76.63307
G1 X182.462 Y173.148 E76.73630
G1 X181.327 Y177.383 E76.83838
G1 X179.336 Y181.292 E76.94051
G1 X176.576 Y184.699 E77.04260
G1 X173.169 Y187.458 E77.14467
G1 X169.262 Y189.449 E77.24676
G1 X165.028 Y190.583 E77.34881
G1 X160.649 Y190.814 E77.45091
G1 X156.316 Y190.127 E77.55305
G1 X152.224 Y188.556 E77.65510
G1 X148.547 Y186.169 E77.75716
G1 X145.446 Y183.068 E77.85927
G1 X143.057 Y179.391 E77.96136
G1 X141.485 Y175.296 E78.06348
G1 X140.800 Y170.966 E78.16555
G1 X140.978 Y167.559 E78.24498
G1 X141.034 Y166.568 E78.26809
G1 X141.910 Y163.303 E78.34679
G1 X142.167 Y162.347 E78.36984
G1 X143.723 Y159.293 E78.44964
G1 X144.181 Y158.413 E78.47274
G1 X145.321 Y157.005 E78.51491
G1 X145.321 Y51.943 E80.96098
G0 F10800 X145.671 Y52.293
G1 F900 X177.821 Y52.293 E81.70950
G1 X177.821 Y156.966 E84.14650
G1 X179.608 Y159.716 E84.22286
G1 X180.127 Y160.521 E84.24516
G1 X181.279 Y163.527 E84.32011
G1 X181.657 Y164.472 E84.34381
G1 X182.182 Y167.795 E84.42213
G1 X182.342 Y168.740 E84.44445
G1 X182.114 Y173.093 E84.54593
G1 X180.999 Y177.257 E84.64629
G1 X179.041 Y181.101 E84.74673
G1 X176.327 Y184.451 E84.84711
G1 X172.977 Y187.163 E84.94746
G1 X169.136 Y189.121 E85.04784
G1 X164.973 Y190.236 E85.14817
G1 X160.667 Y190.463 E85.24857
G1 X156.408 Y189.787 E85.34897
G1 X152.384 Y188.243 E85.44931
G1 X148.768 Y185.895 E85.54969
G1 X145.720 Y182.847 E85.65005
G1 X143.371 Y179.231 E85.75044
G1 X141.825 Y175.205 E85.85085
G1 X141.152 Y170.947 E85.95122
G1 X141.328 Y167.578 E86.02976
G1 X141.382 Y166.624 E86.05201
G1 X142.248 Y163.394 E86.12986
G1 X142.496 Y162.473 E86.15207
G1 X144.034 Y159.453 E86.23098
G1 X144.475 Y158.606 E86.25321
G1 X145.671 Y157.129 E86.29746
G1 X145.671 Y52.293 E88.73826
G0 F10800 X146.021 Y52.643
G1 F900 X177.471 Y52.643 E89.47048
G1 X177.471 Y157.084 E91.90208
G1 X177.497 Y157.110 E91.90294
G1 X179.314 Y159.906 E91.98058
G1 X179.813 Y160.680 E92.00202
G1 X180.974 Y163.706 E92.07748
G1 X181.317 Y164.566 E92.09903
G1 X181.829 Y167.810 E92.17549
G1 X181.990 Y168.760 E92.19793
G1 X181.767 Y173.038 E92.29766
G1 X180.670 Y177.131 E92.39632
G1 X178.746 Y180.909 E92.49503
G1 X176.078 Y184.202 E92.59370
G1 X172.785 Y186.868 E92.69235
G1 X169.010 Y188.792 E92.79099
G1 X164.918 Y189.888 E92.88962
G1 X160.685 Y190.111 E92.98831
G1 X156.499 Y189.447 E93.08699
G1 X152.544 Y187.929 E93.18562
G1 X148.990 Y185.622 E93.28427
G1 X145.993 Y182.625 E93.38295
G1 X143.684 Y179.071 E93.48162
G1 X142.165 Y175.114 E93.58030
G1 X141.503 Y170.929 E93.67895
G1 X141.677 Y167.597 E93.75663
G1 X141.729 Y166.680 E93.77802
G1 X142.586 Y163.485 E93.85503
G1 X142.824 Y162.599 E93.87639
G1 X144.345 Y159.614 E93.95439
G1 X144.769 Y158.799 E93.97578
G1 X146.021 Y157.252 E94.02211
G1 X146.021 Y52.643 E96.45763
G0 F10800 X146.371 Y52.993
G1 F900 X177.121 Y52.993 E97.17356
G1 X177.121 Y157.229 E99.60039
G1 X177.224 Y157.332 E99.60378
G1 X179.020 Y160.097 E99.68054
G1 X179.499 Y160.839 E99.70110
G1 X180.633 Y163.796 E99.77484
G1 X180.977 Y164.659 E99.79647
G1 X181.492 Y167.916 E99.87324
G1 X181.639 Y168.781 E99.89367
G1 X181.419 Y172.983 E99.99163
G1 X180.342 Y177.005 E100.08857
G1 X178.451 Y180.717 E100.18556
G1 X175.829 Y183.953 E100.28253
G1 X172.594 Y186.573 E100.37945
G1 X168.884 Y188.464 E100.47640
G1 X164.862 Y189.541 E100.57334
G1 X160.704 Y189.760 E100.67028
G1 X156.590 Y189.107 E100.76727
G1 X152.704 Y187.616 E100.86417
G1 X149.211 Y185.348 E100.96113
G1 X146.267 Y182.404 E101.05807
G1 X143.998 Y178.912 E101.15502
G1 X142.505 Y175.023 E101.25201
G1 X141.855 Y170.910 E101.34896
G1 X142.027 Y167.616 E101.42575
G1 X142.076 Y166.736 E101.44627
G1 X142.924 Y163.576 E101.52245
G1 X143.153 Y162.726 E101.54294
G1 X144.656 Y159.774 E101.62007
G1 X145.063 Y158.992 E101.64059
G1 X146.371 Y157.376 E101.68900
G1 X146.371 Y52.993 E104.11925
G0 F10800 X146.721 Y53.343
G1 F900 X176.771 Y53.343 E104.81888
G1 X176.771 Y157.374 E107.24094
G1 X176.950 Y157.553 E107.24683
G1 X178.727 Y160.287 E107.32275
G1 X179.185 Y160.998 E107.34244
G1 X180.320 Y163.957 E107.41623
G1 X180.638 Y164.753 E107.43618
G1 X181.145 Y167.962 E107.51182
G1 X181.287 Y168.801 E107.53163
G1 X181.071 Y172.928 E107.62785
G1 X180.013 Y176.879 E107.72308
G1 X178.156 Y180.525 E107.81834
G1 X175.581 Y183.704 E107.91359
G1 X172.402 Y186.278 E108.00882
G1 X168.758 Y188.135 E108.10404
G1 X164.807 Y189.193 E108.19927
G1 X160.722 Y189.408 E108.29451
G1 X156.681 Y188.767 E108.38977
G1 X152.863 Y187.302 E108.48498
G1 X149.433 Y185.075 E108.58019
G1 X146.540 Y182.182 E108.67545
G1 X144.312 Y178.752 E108.77068
G1 X142.845 Y174.932 E108.86595
G1 X142.206 Y170.892 E108.96117
G1 X142.376 Y167.635 E109.03711
G1 X142.424 Y166.791 E109.05679
G1 X143.262 Y163.666 E109.13212
G1 X143.481 Y162.852 E109.15174
G1 X144.967 Y159.934 E109.22798
G1 X145.357 Y159.185 E109.24764
G1 X146.721 Y157.500 E109.29811
G1 X146.721 Y53.343 E111.72311
G0 F10800 X147.071 Y53.693
G1 F900 X176.421 Y53.693 E112.40644
G1 X176.421 Y157.519 E114.82372
G1 X176.677 Y157.775 E114.83215
G1 X178.433 Y160.477 E114.90718
G1 X178.871 Y161.157 E114.92601
G1 X179.979 Y164.047 E114.99807
G1 X180.298 Y164.846 E115.01810
G1 X180.794 Y167.986 E115.09211
G1 X180.936 Y168.822 E115.11186
G1 X180.724 Y172.873 E115.20630
G1 X179.685 Y176.753 E115.29982
G1 X177.860 Y180.334 E115.39340
G1 X175.332 Y183.455 E115.48691
G1 X172.210 Y185.982 E115.58042
G1 X168.631 Y187.806 E115.67394
G1 X164.752 Y188.845 E115.76744
G1 X160.741 Y189.057 E115.86095
G1 X156.772 Y188.427 E115.95452
G1 X153.023 Y186.988 E116.04801
G1 X149.654 Y184.801 E116.14152
G1 X146.814 Y181.961 E116.23503
G1 X144.625 Y178.592 E116.32857
G1 X143.185 Y174.841 E116.42212
G1 X142.558 Y170.874 E116.51563
G1 X142.726 Y167.654 E116.59070
G1 X142.771 Y166.847 E116.60951
G1 X143.600 Y163.757 E116.68400
G1 X143.810 Y162.978 E116.70278
G1 X145.278 Y160.094 E116.77813
G1 X145.652 Y159.378 E116.79693
G1 X147.071 Y157.625 E116.84944
G1 X147.071 Y53.693 E119.26920
G0 F10800 X147.421 Y54.043
G1 F900 X176.071 Y54.043 E119.93623
G1 X176.071 Y157.664 E122.34874
G1 X176.404 Y157.997 E122.35971
G1 X178.139 Y160.667 E122.43384
G1 X178.558 Y161.317 E122.45185
G1 X179.654 Y164.177 E122.52316
G1 X179.959 Y164.940 E122.54229
G1 X180.449 Y168.044 E122.61545
G1 X180.584 Y168.842 E122.63429
G1 X180.376 Y172.818 E122.72699
G1 X179.356 Y176.627 E122.81880
G1 X177.565 Y180.142 E122.91064
G1 X175.083 Y183.206 E123.00245
G1 X172.019 Y185.687 E123.09424
