;Generated with Cura_SteamEngine 14.09
G28 ; Home extruder
G1 Z5 F100
G1 Z0 F100
M106 S165 ; Turn on fan
G90 ; Absolute positioning
M82 ; Extruder in absolute mode
; Activate all used extruder
M104 T0 S200
G92 E0 ; Reset extruder position
; Wait for all used extruders to reach temperature
M109 T0 S200
T0
M83
G1 E10 F100
M82
G92 E0 ; Reset extruder position
M117 Vertex is printing
G1 F1000 Z5
;Layer count: 104
;LAYER:0
M106 S127
G0 F10800 X84.384 Y65.439 Z0.200
;TYPE:SKIRT
G1 F900 X141.345 Y65.439 E1.32617
G1 X162.560 Y86.654 E2.02469
G1 X162.560 Y143.615 E3.35086
G1 X141.345 Y164.830 E4.04939
G1 X84.384 Y164.830 E5.37556
G1 X63.169 Y143.615 E6.07408
G1 X63.169 Y86.654 E7.40025
G1 X84.384 Y65.439 E8.09877
G0 F10800 X84.529 Y65.789
G1 F900 X141.200 Y65.789 E9.41819
G1 X162.210 Y86.799 E10.10997
G1 X162.210 Y143.470 E11.42938
G1 X141.200 Y164.480 E12.12116
G1 X84.529 Y164.480 E13.44058
G1 X63.519 Y143.470 E14.13235
G1 X63.519 Y86.799 E15.45177
G1 X84.529 Y65.789 E16.14354
G0 F10800 X84.674 Y66.139
G1 F900 X141.055 Y66.139 E17.45621
G1 X161.860 Y86.944 E18.14123
G1 X161.860 Y143.325 E19.45390
G1 X141.055 Y164.130 E20.13892
G1 X84.674 Y164.130 E21.45159
G1 X63.869 Y143.325 E22.13661
G1 X63.869 Y86.944 E23.44928
G1 X84.674 Y66.139 E24.13430
G0 F10800 X84.819 Y66.489
G1 F900 X140.910 Y66.489 E25.44022
G1 X161.510 Y87.089 E26.11849
G1 X161.510 Y143.180 E27.42441
G1 X140.910 Y163.780 E28.10268
G1 X84.819 Y163.780 E29.40859
G1 X64.219 Y143.180 E30.08687
G1 X64.219 Y87.089 E31.39278
G1 X84.819 Y66.489 E32.07106
G0 F10800 X84.964 Y66.839
G1 F900 X140.765 Y66.839 E33.37022
G1 X161.160 Y87.234 E34.04174
G1 X161.160 Y143.035 E35.34091
G1 X140.765 Y163.430 E36.01243
G1 X84.964 Y163.430 E37.31159
G1 X64.569 Y143.035 E37.98312
G1 X64.569 Y87.234 E39.28228
G1 X84.964 Y66.839 E39.95380
G0 F10800 X85.109 Y67.189
G1 F900 X140.620 Y67.189 E41.24622
G1 X160.810 Y87.379 E41.91099
G1 X160.810 Y142.890 E43.20340
G1 X140.620 Y163.080 E43.86817
G1 X85.109 Y163.080 E45.16059
G1 X64.919 Y142.890 E45.82536
G1 X64.919 Y87.379 E47.11777
G1 X85.109 Y67.189 E47.78254
G0 F10800 X85.254 Y67.539
G1 F900 X140.475 Y67.539 E49.06821
G1 X160.460 Y87.524 E49.72623
G1 X160.460 Y142.745 E51.01189
G1 X140.475 Y162.730 E51.66991
G1 X85.254 Y162.730 E52.95557
G1 X65.269 Y142.745 E53.61360
G1 X65.269 Y87.524 E54.89926
G1 X85.254 Y67.539 E55.55728
G0 F10800 X85.399 Y67.889
G1 F900 X140.330 Y67.889 E56.83619
G1 X160.110 Y87.669 E57.48746
G1 X160.110 Y142.600 E58.76637
G1 X140.330 Y162.380 E59.41764
G1 X85.399 Y162.380 E60.69655
G1 X65.619 Y142.600 E61.34783
G1 X65.619 Y87.669 E62.62673
G1 X85.399 Y67.889 E63.27801
G0 F10800 X85.544 Y68.239
G1 F900 X140.185 Y68.239 E64.55016
G1 X159.760 Y87.814 E65.19469
G1 X159.760 Y142.455 E66.46685
G1 X140.185 Y162.030 E67.11137
G1 X85.544 Y162.030 E68.38353
G1 X65.969 Y142.455 E69.02805
G1 X65.969 Y87.814 E70.30021
G1 X85.544 Y68.239 E70.94473
G0 F10800 X85.689 Y68.589
G1 F900 X140.040 Y68.589 E72.21014
G1 X159.410 Y87.959 E72.84791
G1 X159.410 Y142.310 E74.11331
G1 X140.040 Y161.680 E74.75109
G1 X85.689 Y161.680 E76.01649
G1 X66.319 Y142.310 E76.65427
G1 X66.319 Y87.959 E77.91967
G1 X85.689 Y68.589 E78.55745
G0 F10800 X85.834 Y68.939
G1 F900 X139.895 Y68.939 E79.81610
G1 X159.060 Y88.104 E80.44712
G1 X159.060 Y142.165 E81.70578
G1 X139.895 Y161.330 E82.33680
G1 X85.834 Y161.330 E83.59545
G1 X66.669 Y142.165 E84.22648
G1 X66.669 Y88.104 E85.48513
G1 X85.834 Y68.939 E86.11615
G0 F10800 X85.979 Y69.289
G1 F900 X139.750 Y69.289 E87.36806
G1 X158.710 Y88.249 E87.99233
G1 X158.710 Y142.020 E89.24423
G1 X139.750 Y160.980 E89.86851
G1 X85.979 Y160.980 E91.12041
G1 X67.019 Y142.020 E91.74468
G1 X67.019 Y88.249 E92.99658
G1 X85.979 Y69.289 E93.62086
G0 F10800 X86.124 Y69.639
G1 F900 X139.605 Y69.639 E94.86601
G1 X158.360 Y88.394 E95.48353
G1 X158.360 Y141.875 E96.72868
G1 X139.605 Y160.630 E97.34621
G1 X86.124 Y160.630 E98.59136
G1 X67.369 Y141.875 E99.20888
G1 X67.369 Y88.394 E100.45403
G1 X86.124 Y69.639 E101.07155
G0 F10800 X86.269 Y69.989
G1 F900 X139.460 Y69.989 E102.30995
G1 X158.010 Y88.539 E102.92073
G1 X158.010 Y141.730 E104.15912
G1 X139.460 Y160.280 E104.76990
G1 X86.269 Y160.280 E106.00830
G1 X67.719 Y141.730 E106.61907
G1 X67.719 Y88.539 E107.85747
G1 X86.269 Y69.989 E108.46824
G0 F10800 X86.414 Y70.339
G1 F900 X139.315 Y70.339 E109.69989
G1 X157.660 Y88.684 E110.30391
G1 X157.660 Y141.585 E111.53556
G1 X139.315 Y159.930 E112.13959
G1 X86.414 Y159.930 E113.37123
G1 X68.069 Y141.585 E113.97526
G1 X68.069 Y88.684 E115.20690
G1 X86.414 Y70.339 E115.81093
G0 F10800 X86.559 Y70.689
G1 F900 X139.170 Y70.689 E117.03582
G1 X157.310 Y88.829 E117.63310
G1 X157.310 Y141.440 E118.85799
G1 X139.170 Y159.580 E119.45527
G1 X86.559 Y159.580 E120.68016
G1 X68.419 Y141.440 E121.27744
G1 X68.419 Y88.829 E122.50233
G1 X86.559 Y70.689 E123.09960
G0 F10800 X86.704 Y71.039
G1 F900 X139.025 Y71.039 E124.31775
G1 X156.960 Y88.974 E124.90827
G1 X156.960 Y141.295 E126.12641
G1 X139.025 Y159.230 E126.71694
G1 X86.704 Y159.230 E127.93508
G1 X68.769 Y141.295 E128.52561
G1 X68.769 Y88.974 E129.74375
G1 X86.704 Y71.039 E130.33428
G0 F10800 X86.849 Y71.389
G1 F900 X138.880 Y71.389 E131.54567
G1 X156.610 Y89.119 E132.12944
G1 X156.610 Y141.150 E133.34083
G1 X138.880 Y158.880 E133.92461
G1 X86.849 Y158.880 E135.13600
G1 X69.119 Y141.150 E135.71977
G1 X69.119 Y89.119 E136.93116
G1 X86.849 Y71.389 E137.51494
G0 F10800 X86.994 Y71.739
G1 F900 X138.735 Y71.739 E138.71958
G1 X156.260 Y89.264 E139.29660
G1 X156.260 Y141.005 E140.50124
G1 X138.735 Y158.530 E141.07827
G1 X86.994 Y158.530 E142.28291
G1 X69.469 Y141.005 E142.85993
G1 X69.469 Y89.264 E144.06457
G1 X86.994 Y71.739 E144.64160
G0 F10800 X87.139 Y72.089
G1 F900 X138.590 Y72.089 E145.83948
G1 X155.910 Y89.409 E146.40976
G1 X155.910 Y140.860 E147.60765
G1 X138.590 Y158.180 E148.17792
G1 X87.139 Y158.180 E149.37581
G1 X69.819 Y140.860 E149.94609
G1 X69.819 Y89.409 E151.14397
G1 X87.139 Y72.089 E151.71425
G0 F10800 X87.284 Y72.439
G1 F900 X138.445 Y72.439 E152.90538
G1 X155.560 Y89.554 E153.46891
G1 X155.560 Y140.715 E154.66004
G1 X138.445 Y157.830 E155.22357
G1 X87.284 Y157.830 E156.41471
G1 X70.169 Y140.715 E156.97823
G1 X70.169 Y89.554 E158.16937
G1 X87.284 Y72.439 E158.73289
G0 F10800 X87.429 Y72.789
G1 F900 X138.300 Y72.789 E159.91728
G1 X155.210 Y89.699 E160.47405
G1 X155.210 Y140.570 E161.65844
G1 X138.300 Y157.480 E162.21521
G1 X87.429 Y157.480 E163.39960
G1 X70.519 Y140.570 E163.95637
G1 X70.519 Y89.699 E165.14076
G1 X87.429 Y72.789 E165.69753
G0 F10800 X87.574 Y73.139
G1 F900 X138.155 Y73.139 E166.87516
G1 X154.860 Y89.844 E167.42519
G1 X154.860 Y140.425 E168.60282
G1 X138.155 Y157.130 E169.15285
G1 X87.574 Y157.130 E170.33048
G1 X70.869 Y140.425 E170.88051
G1 X70.869 Y89.844 E172.05814
G1 X87.574 Y73.139 E172.60816
G0 F10800 X87.719 Y73.489
G1 F900 X138.010 Y73.489 E173.77904
G1 X154.510 Y89.989 E174.32232
G1 X154.510 Y140.280 E175.49320
G1 X138.010 Y156.780 E176.03648
G1 X87.719 Y156.780 E177.20736
G1 X71.219 Y140.280 E177.75063
G1 X71.219 Y89.989 E178.92151
G1 X87.719 Y73.489 E179.46479
G0 F10800 X87.864 Y73.839
G1 F900 X137.865 Y73.839 E180.62892
G1 X154.160 Y90.134 E181.16544
G1 X154.160 Y140.135 E182.32957
G1 X137.865 Y156.430 E182.86610
G1 X87.864 Y156.430 E184.03023
G1 X71.569 Y140.135 E184.56675
G1 X71.569 Y90.134 E185.73088
G1 X87.864 Y73.839 E186.26741
G0 F10800 X88.009 Y74.189
G1 F900 X137.720 Y74.189 E187.42478
G1 X153.810 Y90.279 E187.95456
G1 X153.810 Y139.990 E189.11194
G1 X137.720 Y156.080 E189.64172
G1 X88.009 Y156.080 E190.79909
G1 X71.919 Y139.990 E191.32887
G1 X71.919 Y90.279 E192.48624
G1 X88.009 Y74.189 E193.01602
G0 F10800 X88.154 Y74.539
G1 F900 X137.575 Y74.539 E194.16665
G1 X153.460 Y90.424 E194.68967
G1 X153.460 Y139.845 E195.84030
G1 X137.575 Y155.730 E196.36332
G1 X88.154 Y155.730 E197.51395
G1 X72.269 Y139.845 E198.03698
G1 X72.269 Y90.424 E199.18760
G1 X88.154 Y74.539 E199.71063
G0 F10800 X88.299 Y74.889
G1 F900 X137.430 Y74.889 E200.85450
G1 X153.110 Y90.569 E201.37078
G1 X153.110 Y139.700 E202.51465
G1 X137.430 Y155.380 E203.03093
G1 X88.299 Y155.380 E204.17480
G1 X72.619 Y139.700 E204.69108
G1 X72.619 Y90.569 E205.83495
G1 X88.299 Y74.889 E206.35123
G0 F10800 X88.444 Y75.239
G1 F900 X137.285 Y75.239 E207.48835
G1 X152.760 Y90.714 E207.99788
G1 X152.760 Y139.555 E209.13500
G1 X137.285 Y155.030 E209.64452
G1 X88.444 Y155.030 E210.78165
G1 X72.969 Y139.555 E211.29117
G1 X72.969 Y90.714 E212.42829
G1 X88.444 Y75.239 E212.93782
G0 F10800 X88.589 Y75.589
G1 F900 X137.140 Y75.589 E214.06819
G1 X152.410 Y90.859 E214.57097
G1 X152.410 Y139.410 E215.70134
G1 X137.140 Y154.680 E216.20411
G1 X88.589 Y154.680 E217.33448
G1 X73.319 Y139.410 E217.83726
G1 X73.319 Y90.859 E218.96763
G1 X88.589 Y75.589 E219.47041
G0 F10800 X88.734 Y75.939
G1 F900 X136.995 Y75.939 E220.59403
G1 X152.060 Y91.004 E221.09005
G1 X152.060 Y139.265 E222.21367
G1 X136.995 Y154.330 E222.70970
G1 X88.734 Y154.330 E223.83332
G1 X73.669 Y139.265 E224.32934
G1 X73.669 Y91.004 E225.45296
G1 X88.734 Y75.939 E225.94899
G0 F10800 X88.879 Y76.289
G1 F900 X136.850 Y76.289 E227.06585
G1 X151.710 Y91.149 E227.55513
G1 X151.710 Y139.120 E228.67200
G1 X136.850 Y153.980 E229.16128
G1 X88.879 Y153.980 E230.27814
G1 X74.019 Y139.120 E230.76742
G1 X74.019 Y91.149 E231.88428
G1 X88.879 Y76.289 E232.37356
G0 F10800 X89.024 Y76.639
G1 F900 X136.705 Y76.639 E233.48368
G1 X151.360 Y91.294 E233.96620
G1 X151.360 Y138.975 E235.07632
G1 X136.705 Y153.630 E235.55885
G1 X89.024 Y153.630 E236.66896
G1 X74.369 Y138.975 E237.15149
G1 X74.369 Y91.294 E238.26160
G1 X89.024 Y76.639 E238.74413
G0 F10800 X89.169 Y76.989
G1 F900 X136.560 Y76.989 E239.84749
G1 X151.010 Y91.439 E240.32327
G1 X151.010 Y138.830 E241.42663
G1 X136.560 Y153.280 E241.90241
G1 X89.169 Y153.280 E243.00577
G1 X74.719 Y138.830 E243.48155
G1 X74.719 Y91.439 E244.58491
G1 X89.169 Y76.989 E245.06069
G0 F10800 X89.314 Y77.339
G1 F900 X136.415 Y77.339 E246.15730
G1 X150.660 Y91.584 E246.62633
G1 X150.660 Y138.685 E247.72294
G1 X136.415 Y152.930 E248.19197
G1 X89.314 Y152.930 E249.28858
G1 X75.069 Y138.685 E249.75761
G1 X75.069 Y91.584 E250.85422
G1 X89.314 Y77.339 E251.32325
G0 F10800 X93.040 Y100.310
G1 F900 X93.040 Y129.960 E252.01356
G1 X96.690 Y129.960 E252.09854
G1 X96.690 Y100.310 E252.78885
G1 X93.040 Y100.310 E252.87383
G0 F10800 X93.390 Y100.660
G1 F900 X93.390 Y129.610 E253.54785
G1 X96.340 Y129.610 E253.61653
G1 X96.340 Y100.660 E254.29055
G1 X93.390 Y100.660 E254.35923
G0 F10800 X93.740 Y101.010
G1 F900 X93.740 Y129.260 E255.01695
G1 X95.990 Y129.260 E255.06934
G1 X95.990 Y101.010 E255.72706
G1 X93.740 Y101.010 E255.77944
G0 F10800 X94.090 Y101.360
G1 F900 X94.090 Y128.910 E256.42086
G1 X95.640 Y128.910 E256.45695
G1 X95.640 Y101.360 E257.09837
G1 X94.090 Y101.360 E257.13446
G0 F10800 X94.440 Y101.710
G1 F900 X94.440 Y128.560 E257.75958
G1 X95.290 Y128.560 E257.77937
G1 X95.290 Y101.710 E258.40450
G1 X94.440 Y101.710 E258.42429
G0 F10800 X129.040 Y100.310
G1 F900 X129.040 Y129.960 E259.11460
G1 X132.690 Y129.960 E259.19958
G1 X132.690 Y100.310 E259.88989
G1 X129.040 Y100.310 E259.97487
G0 F10800 X129.390 Y100.660
G1 F900 X129.390 Y129.610 E260.64889
G1 X132.340 Y129.610 E260.71757
G1 X132.340 Y100.660 E261.39159
G1 X129.390 Y100.660 E261.46027
G0 F10800 X129.740 Y101.010
G1 F900 X129.740 Y129.260 E262.11799
G1 X131.990 Y129.260 E262.17037
G1 X131.990 Y101.010 E262.82809
G1 X129.740 Y101.010 E262.88048
G0 F10800 X130.090 Y101.360
G1 F900 X130.090 Y128.910 E263.52190
G1 X131.640 Y128.910 E263.55799
G1 X131.640 Y101.360 E264.19941
G1 X130.090 Y101.360 E264.23550
G0 F10800 X130.440 Y101.710
G1 F900 X130.440 Y128.560 E264.86062
G1 X131.290 Y128.560 E264.88041
G1 X131.290 Y101.710 E265.50553
G1 X130.440 Y101.710 E265.52532
G0 F10800 X130.440 Y99.685
G0 X128.340 Y99.610
;TYPE:WALL-INNER
G1 F900 X128.340 Y130.660 E266.24823
G1 X133.390 Y130.660 E266.36581
G1 X133.390 Y99.610 E267.08872
G1 X128.340 Y99.610 E267.20629
G0 F10800 X136.558 Y90.318
G1 F900 X136.967 Y90.887 E267.22261
G1 X137.024 Y90.969 E267.22493
G1 X137.595 Y91.384 E267.24137
G1 X137.673 Y91.439 E267.24359
G1 X138.408 Y91.677 E267.26158
G1 X139.117 Y91.682 E267.27808
G1 X139.214 Y91.682 E267.28034
G1 X139.954 Y91.442 E267.29845
G1 X140.523 Y91.033 E267.31477
G1 X140.605 Y90.976 E267.31709
G1 X141.020 Y90.405 E267.33353
G1 X141.075 Y90.327 E267.33575
G1 X141.313 Y89.590 E267.35378
G1 X141.319 Y88.788 E267.37245
G1 X141.074 Y88.033 E267.39093
G1 X140.608 Y87.391 E267.40940
G1 X139.967 Y86.926 E267.42784
G1 X139.214 Y86.681 E267.44628
G1 X138.422 Y86.681 E267.46472
G1 X137.669 Y86.926 E267.48315
G1 X137.028 Y87.391 E267.50159
G1 X136.563 Y88.033 E267.52005
G1 X136.317 Y88.786 E267.53849
G1 X136.317 Y89.577 E267.55690
G1 X136.558 Y90.318 E267.57505
G0 F10800 X136.295 Y88.782
G0 X136.126 Y78.039
G1 F900 X149.960 Y91.873 E268.03054
G1 X149.960 Y138.396 E269.11370
G1 X136.126 Y152.230 E269.56919
G1 X89.603 Y152.230 E270.65234
G1 X75.769 Y138.396 E271.10784
G1 X75.769 Y91.873 E272.19099
G1 X89.603 Y78.039 E272.64649
G1 X136.126 Y78.039 E273.72964
G0 F10800 X141.340 Y88.785
G0 X141.040 Y90.419
G0 X144.703 Y102.727
G1 F900 X143.997 Y103.087 E273.74809
G1 X143.437 Y103.647 E273.76653
G1 X143.077 Y104.353 E273.78498
G1 X142.953 Y105.135 E273.80342
G1 X143.060 Y105.805 E273.81921
G1 X143.078 Y105.918 E273.82188
G1 X143.387 Y106.525 E273.83774
G1 X143.441 Y106.626 E273.84040
G1 X143.997 Y107.183 E273.85873
G1 X144.591 Y107.485 E273.87424
G1 X144.697 Y107.542 E273.87704
G1 X145.372 Y107.649 E273.89295
G1 X145.484 Y107.667 E273.89559
G1 X146.155 Y107.560 E273.91141
G1 X146.268 Y107.542 E273.91408
G1 X146.876 Y107.234 E273.92995
G1 X146.978 Y107.179 E273.93264
G1 X147.533 Y106.622 E273.95095
G1 X147.835 Y106.029 E273.96644
G1 X147.892 Y105.923 E273.96925
G1 X147.999 Y105.248 E273.98516
G1 X148.017 Y105.136 E273.98780
G1 X147.893 Y104.353 E274.00626
G1 X147.533 Y103.647 E274.02471
G1 X146.973 Y103.087 E274.04315
G1 X146.267 Y102.727 E274.06160
G1 X145.485 Y102.603 E274.08003
G1 X144.703 Y102.727 E274.09846
G0 F10800 X143.419 Y103.634
G0 X142.931 Y105.135
G0 X143.423 Y106.639
G0 X144.703 Y112.727
G1 F900 X143.997 Y113.087 E274.11692
G1 X143.437 Y113.647 E274.13535
G1 X143.077 Y114.353 E274.15380
G1 X142.953 Y115.135 E274.17224
G1 X143.060 Y115.805 E274.18804
G1 X143.078 Y115.918 E274.19070
G1 X143.387 Y116.525 E274.20656
G1 X143.441 Y116.626 E274.20922
G1 X143.997 Y117.183 E274.22755
G1 X144.591 Y117.485 E274.24306
G1 X144.697 Y117.542 E274.24586
G1 X145.372 Y117.649 E274.26178
G1 X145.484 Y117.667 E274.26442
G1 X146.155 Y117.560 E274.28024
G1 X146.268 Y117.542 E274.28290
G1 X146.876 Y117.234 E274.29877
G1 X146.978 Y117.179 E274.30147
G1 X147.533 Y116.622 E274.31977
G1 X147.835 Y116.029 E274.33527
G1 X147.892 Y115.923 E274.33807
G1 X147.999 Y115.248 E274.35398
G1 X148.017 Y115.136 E274.35662
G1 X147.893 Y114.353 E274.37508
G1 X147.533 Y113.647 E274.39353
G1 X146.973 Y113.087 E274.41197
G1 X146.267 Y112.727 E274.43042
G1 X145.485 Y112.603 E274.44885
G1 X144.703 Y112.727 E274.46729
G0 F10800 X143.419 Y113.634
G0 X142.931 Y115.135
G0 X143.423 Y116.639
G0 X144.703 Y122.727
G1 F900 X143.997 Y123.087 E274.48574
G1 X143.437 Y123.647 E274.50418
G1 X143.077 Y124.353 E274.52263
G1 X142.953 Y125.135 E274.54106
G1 X143.060 Y125.805 E274.55686
G1 X143.078 Y125.918 E274.55952
G1 X143.387 Y126.525 E274.57538
G1 X143.441 Y126.626 E274.57805
G1 X143.997 Y127.183 E274.59637
G1 X144.591 Y127.485 E274.61188
G1 X144.697 Y127.542 E274.61469
G1 X145.372 Y127.649 E274.63060
G1 X145.484 Y127.667 E274.63324
G1 X146.155 Y127.560 E274.64906
G1 X146.268 Y127.542 E274.65172
G1 X146.876 Y127.234 E274.66759
G1 X146.978 Y127.179 E274.67029
G1 X147.533 Y126.622 E274.68859
G1 X147.835 Y126.029 E274.70409
G1 X147.892 Y125.923 E274.70689
G1 X147.999 Y125.248 E274.72280
G1 X148.017 Y125.136 E274.72544
G1 X147.893 Y124.353 E274.74390
G1 X147.533 Y123.647 E274.76235
G1 X146.973 Y123.087 E274.78079
G1 X146.267 Y122.727 E274.79924
G1 X145.485 Y122.603 E274.81767
G1 X144.703 Y122.727 E274.83611
G0 F10800 X143.419 Y123.634
G0 X142.931 Y125.135
