;Generated with Cura_SteamEngine 14.09
G28 ; Home extruder
G1 Z5 F100
G1 Z0 F100
M106 S165 ; Turn on fan
G90 ; Absolute positioning
M82 ; Extruder in absolute mode
; Activate all used extruder
M104 T0 S200
G92 E0 ; Reset extruder position
; Wait for all used extruders to reach temperature
M109 T0 S200
T0
M83
G1 E10 F100
M82
G92 E0 ; Reset extruder position
M117 Vertex is printing
G1 F1000 Z5
;Layer count: 56
;LAYER:0
M106 S127
G0 F10800 X66.667 Y86.195 Z0.200
;TYPE:SKIRT
G1 F900 X87.882 Y64.980 E0.69852
G1 X144.843 Y64.980 E2.02469
G1 X166.058 Y86.195 E2.72322
G1 X166.058 Y143.156 E4.04939
G1 X144.843 Y164.371 E4.74791
G1 X87.882 Y164.371 E6.07408
G1 X66.667 Y143.156 E6.77260
G1 X66.667 Y86.195 E8.09877
G0 F10800 X67.017 Y86.340
G1 F900 X88.027 Y65.330 E8.79055
G1 X144.698 Y65.330 E10.10997
G1 X165.708 Y86.340 E10.80174
G1 X165.708 Y143.011 E12.12116
G1 X144.698 Y164.021 E12.81293
G1 X88.027 Y164.021 E14.13235
G1 X67.017 Y143.011 E14.82412
G1 X67.017 Y86.340 E16.14354
G0 F10800 X67.367 Y86.485
G1 F900 X88.172 Y65.680 E16.82856
G1 X144.553 Y65.680 E18.14123
G1 X165.358 Y86.485 E18.82625
G1 X165.358 Y142.866 E20.13892
G1 X144.553 Y163.671 E20.82394
G1 X88.172 Y163.671 E22.13661
G1 X67.367 Y142.866 E22.82163
G1 X67.367 Y86.485 E24.13430
G0 F10800 X67.717 Y86.630
G1 F900 X88.317 Y66.030 E24.81257
G1 X144.408 Y66.030 E26.11849
G1 X165.008 Y86.630 E26.79676
G1 X165.008 Y142.721 E28.10268
G1 X144.408 Y163.321 E28.78095
G1 X88.317 Y163.321 E30.08687
G1 X67.717 Y142.721 E30.76514
G1 X67.717 Y86.630 E32.07106
G0 F10800 X68.067 Y86.775
G1 F900 X88.462 Y66.380 E32.74258
G1 X144.263 Y66.380 E34.04174
G1 X164.658 Y86.775 E34.71327
G1 X164.658 Y142.576 E36.01243
G1 X144.263 Y162.971 E36.68395
G1 X88.462 Y162.971 E37.98312
G1 X68.067 Y142.576 E38.65464
G1 X68.067 Y86.775 E39.95380
G0 F10800 X68.417 Y86.920
G1 F900 X88.607 Y66.730 E40.61858
G1 X144.118 Y66.730 E41.91099
G1 X164.308 Y86.920 E42.57576
G1 X164.308 Y142.431 E43.86817
G1 X144.118 Y162.621 E44.53295
G1 X88.607 Y162.621 E45.82536
G1 X68.417 Y142.431 E46.49013
G1 X68.417 Y86.920 E47.78254
G0 F10800 X68.767 Y87.065
G1 F900 X88.752 Y67.080 E48.44057
G1 X143.973 Y67.080 E49.72623
G1 X163.958 Y87.065 E50.38425
G1 X163.958 Y142.286 E51.66991
G1 X143.973 Y162.271 E52.32794
G1 X88.752 Y162.271 E53.61360
G1 X68.767 Y142.286 E54.27162
G1 X68.767 Y87.065 E55.55728
G0 F10800 X69.117 Y87.210
G1 F900 X88.897 Y67.430 E56.20855
G1 X143.828 Y67.430 E57.48746
G1 X163.608 Y87.210 E58.13874
G1 X163.608 Y142.141 E59.41764
G1 X143.828 Y161.921 E60.06892
G1 X88.897 Y161.921 E61.34783
G1 X69.117 Y142.141 E61.99910
G1 X69.117 Y87.210 E63.27801
G0 F10800 X69.467 Y87.355
G1 F900 X89.042 Y67.780 E63.92253
G1 X143.683 Y67.780 E65.19469
G1 X163.258 Y87.355 E65.83921
G1 X163.258 Y141.996 E67.11137
G1 X143.683 Y161.571 E67.75589
G1 X89.042 Y161.571 E69.02805
G1 X69.467 Y141.996 E69.67257
G1 X69.467 Y87.355 E70.94473
G0 F10800 X69.817 Y87.500
G1 F900 X89.187 Y68.130 E71.58250
G1 X143.538 Y68.130 E72.84791
G1 X162.908 Y87.500 E73.48568
G1 X162.908 Y141.851 E74.75109
G1 X143.538 Y161.221 E75.38886
G1 X89.187 Y161.221 E76.65427
G1 X69.817 Y141.851 E77.29204
G1 X69.817 Y87.500 E78.55745
G0 F10800 X70.167 Y87.645
G1 F900 X89.332 Y68.480 E79.18847
G1 X143.393 Y68.480 E80.44712
G1 X162.558 Y87.645 E81.07815
G1 X162.558 Y141.706 E82.33680
G1 X143.393 Y160.871 E82.96782
G1 X89.332 Y160.871 E84.22648
G1 X70.167 Y141.706 E84.85750
G1 X70.167 Y87.645 E86.11615
G0 F10800 X70.517 Y87.790
G1 F900 X89.477 Y68.830 E86.74043
G1 X143.248 Y68.830 E87.99233
G1 X162.208 Y87.790 E88.61660
G1 X162.208 Y141.561 E89.86851
G1 X143.248 Y160.521 E90.49278
G1 X89.477 Y160.521 E91.74468
G1 X70.517 Y141.561 E92.36896
G1 X70.517 Y87.790 E93.62086
G0 F10800 X70.867 Y87.935
G1 F900 X89.622 Y69.180 E94.23838
G1 X143.103 Y69.180 E95.48353
G1 X161.858 Y87.935 E96.10106
G1 X161.858 Y141.416 E97.34621
G1 X143.103 Y160.171 E97.96373
G1 X89.622 Y160.171 E99.20888
G1 X70.867 Y141.416 E99.82640
G1 X70.867 Y87.935 E101.07155
G0 F10800 X71.217 Y88.080
G1 F900 X89.767 Y69.530 E101.68233
G1 X142.958 Y69.530 E102.92073
G1 X161.508 Y88.080 E103.53150
G1 X161.508 Y141.271 E104.76990
G1 X142.958 Y159.821 E105.38067
G1 X89.767 Y159.821 E106.61907
G1 X71.217 Y141.271 E107.22985
G1 X71.217 Y88.080 E108.46824
G0 F10800 X71.567 Y88.225
G1 F900 X89.912 Y69.880 E109.07227
G1 X142.813 Y69.880 E110.30391
G1 X161.158 Y88.225 E110.90794
G1 X161.158 Y141.126 E112.13959
G1 X142.813 Y159.471 E112.74361
G1 X89.912 Y159.471 E113.97526
G1 X71.567 Y141.126 E114.57928
G1 X71.567 Y88.225 E115.81093
G0 F10800 X71.917 Y88.370
G1 F900 X90.057 Y70.230 E116.40820
G1 X142.668 Y70.230 E117.63310
G1 X160.808 Y88.370 E118.23037
G1 X160.808 Y140.981 E119.45527
G1 X142.668 Y159.121 E120.05254
G1 X90.057 Y159.121 E121.27744
G1 X71.917 Y140.981 E121.87471
G1 X71.917 Y88.370 E123.09960
G0 F10800 X72.267 Y88.515
G1 F900 X90.202 Y70.580 E123.69013
G1 X142.523 Y70.580 E124.90827
G1 X160.458 Y88.515 E125.49880
G1 X160.458 Y140.836 E126.71694
G1 X142.523 Y158.771 E127.30746
G1 X90.202 Y158.771 E128.52561
G1 X72.267 Y140.836 E129.11613
G1 X72.267 Y88.515 E130.33428
G0 F10800 X72.617 Y88.660
G1 F900 X90.347 Y70.930 E130.91805
G1 X142.378 Y70.930 E132.12944
G1 X160.108 Y88.660 E132.71322
G1 X160.108 Y140.691 E133.92461
G1 X142.378 Y158.421 E134.50838
G1 X90.347 Y158.421 E135.71977
G1 X72.617 Y140.691 E136.30355
G1 X72.617 Y88.660 E137.51494
G0 F10800 X72.967 Y88.805
G1 F900 X90.492 Y71.280 E138.09196
G1 X142.233 Y71.280 E139.29660
G1 X159.758 Y88.805 E139.87363
G1 X159.758 Y140.546 E141.07827
G1 X142.233 Y158.071 E141.65529
G1 X90.492 Y158.071 E142.85993
G1 X72.967 Y140.546 E143.43696
G1 X72.967 Y88.805 E144.64160
G0 F10800 X73.317 Y88.950
G1 F900 X90.637 Y71.630 E145.21187
G1 X142.088 Y71.630 E146.40976
G1 X159.408 Y88.950 E146.98004
G1 X159.408 Y140.401 E148.17792
G1 X142.088 Y157.721 E148.74820
G1 X90.637 Y157.721 E149.94609
G1 X73.317 Y140.401 E150.51636
G1 X73.317 Y88.950 E151.71425
G0 F10800 X73.667 Y89.095
G1 F900 X90.782 Y71.980 E152.27777
G1 X141.943 Y71.980 E153.46891
G1 X159.058 Y89.095 E154.03244
G1 X159.058 Y140.256 E155.22357
G1 X141.943 Y157.371 E155.78710
G1 X90.782 Y157.371 E156.97823
G1 X73.667 Y140.256 E157.54176
G1 X73.667 Y89.095 E158.73289
G0 F10800 X74.017 Y89.240
G1 F900 X90.927 Y72.330 E159.28967
G1 X141.798 Y72.330 E160.47405
G1 X158.708 Y89.240 E161.03083
G1 X158.708 Y140.111 E162.21521
G1 X141.798 Y157.021 E162.77199
G1 X90.927 Y157.021 E163.95637
G1 X74.017 Y140.111 E164.51315
G1 X74.017 Y89.240 E165.69753
G0 F10800 X74.367 Y89.385
G1 F900 X91.072 Y72.680 E166.24756
G1 X141.653 Y72.680 E167.42519
G1 X158.358 Y89.385 E167.97522
G1 X158.358 Y139.966 E169.15285
G1 X141.653 Y156.671 E169.70287
G1 X91.072 Y156.671 E170.88051
G1 X74.367 Y139.966 E171.43053
G1 X74.367 Y89.385 E172.60816
G0 F10800 X74.717 Y89.530
G1 F900 X91.217 Y73.030 E173.15144
G1 X141.508 Y73.030 E174.32232
G1 X158.008 Y89.530 E174.86560
G1 X158.008 Y139.821 E176.03648
G1 X141.508 Y156.321 E176.57975
G1 X91.217 Y156.321 E177.75063
G1 X74.717 Y139.821 E178.29391
G1 X74.717 Y89.530 E179.46479
G0 F10800 X75.067 Y89.675
G1 F900 X91.362 Y73.380 E180.00132
G1 X141.363 Y73.380 E181.16544
G1 X157.658 Y89.675 E181.70197
G1 X157.658 Y139.676 E182.86610
G1 X141.363 Y155.971 E183.40263
G1 X91.362 Y155.971 E184.56675
G1 X75.067 Y139.676 E185.10328
G1 X75.067 Y89.675 E186.26741
G0 F10800 X75.417 Y89.820
G1 F900 X91.507 Y73.730 E186.79719
G1 X141.218 Y73.730 E187.95456
G1 X157.308 Y89.820 E188.48434
G1 X157.308 Y139.531 E189.64172
G1 X141.218 Y155.621 E190.17149
G1 X91.507 Y155.621 E191.32887
G1 X75.417 Y139.531 E191.85865
G1 X75.417 Y89.820 E193.01602
G0 F10800 X75.767 Y89.965
G1 F900 X91.652 Y74.080 E193.53905
G1 X141.073 Y74.080 E194.68967
G1 X156.958 Y89.965 E195.21270
G1 X156.958 Y139.386 E196.36332
G1 X141.073 Y155.271 E196.88635
G1 X91.652 Y155.271 E198.03698
G1 X75.767 Y139.386 E198.56000
G1 X75.767 Y89.965 E199.71063
G0 F10800 X76.117 Y90.110
G1 F900 X91.797 Y74.430 E200.22691
G1 X140.928 Y74.430 E201.37078
G1 X156.608 Y90.110 E201.88706
G1 X156.608 Y139.241 E203.03093
G1 X140.928 Y154.921 E203.54721
G1 X91.797 Y154.921 E204.69108
G1 X76.117 Y139.241 E205.20736
G1 X76.117 Y90.110 E206.35123
G0 F10800 X76.467 Y90.255
G1 F900 X91.942 Y74.780 E206.86076
G1 X140.783 Y74.780 E207.99788
G1 X156.258 Y90.255 E208.50740
G1 X156.258 Y139.096 E209.64452
G1 X140.783 Y154.571 E210.15405
G1 X91.942 Y154.571 E211.29117
G1 X76.467 Y139.096 E211.80070
G1 X76.467 Y90.255 E212.93782
G0 F10800 X76.817 Y90.400
G1 F900 X92.087 Y75.130 E213.44060
G1 X140.638 Y75.130 E214.57097
G1 X155.908 Y90.400 E215.07375
G1 X155.908 Y138.951 E216.20411
G1 X140.638 Y154.221 E216.70689
G1 X92.087 Y154.221 E217.83726
G1 X76.817 Y138.951 E218.34004
G1 X76.817 Y90.400 E219.47041
G0 F10800 X77.167 Y90.545
G1 F900 X92.232 Y75.480 E219.96644
G1 X140.493 Y75.480 E221.09005
G1 X155.558 Y90.545 E221.58608
G1 X155.558 Y138.806 E222.70970
G1 X140.493 Y153.871 E223.20573
G1 X92.232 Y153.871 E224.32934
G1 X77.167 Y138.806 E224.82537
G1 X77.167 Y90.545 E225.94899
G0 F10800 X77.517 Y90.690
G1 F900 X92.377 Y75.830 E226.43827
G1 X140.348 Y75.830 E227.55513
G1 X155.208 Y90.690 E228.04441
G1 X155.208 Y138.661 E229.16128
G1 X140.348 Y153.521 E229.65055
G1 X92.377 Y153.521 E230.76742
G1 X77.517 Y138.661 E231.25670
G1 X77.517 Y90.690 E232.37356
G0 F10800 X77.867 Y90.835
G1 F900 X92.522 Y76.180 E232.85609
G1 X140.203 Y76.180 E233.96620
G1 X154.858 Y90.835 E234.44873
G1 X154.858 Y138.516 E235.55885
G1 X140.203 Y153.171 E236.04138
G1 X92.522 Y153.171 E237.15149
G1 X77.867 Y138.516 E237.63402
G1 X77.867 Y90.835 E238.74413
G0 F10800 X78.217 Y90.980
G1 F900 X92.667 Y76.530 E239.21991
G1 X140.058 Y76.530 E240.32327
G1 X154.508 Y90.980 E240.79905
G1 X154.508 Y138.371 E241.90241
G1 X140.058 Y152.821 E242.37819
G1 X92.667 Y152.821 E243.48155
G1 X78.217 Y138.371 E243.95733
G1 X78.217 Y90.980 E245.06069
G0 F10800 X78.567 Y91.125
G1 F900 X92.812 Y76.880 E245.52972
G1 X139.913 Y76.880 E246.62633
G1 X154.158 Y91.125 E247.09536
G1 X154.158 Y138.226 E248.19197
G1 X139.913 Y152.471 E248.66100
G1 X92.812 Y152.471 E249.75761
G1 X78.567 Y138.226 E250.22664
G1 X78.567 Y91.125 E251.32325
G0 F10800 X96.537 Y99.850
G1 F900 X96.537 Y129.500 E252.01356
G1 X100.187 Y129.500 E252.09854
G1 X100.187 Y99.850 E252.78885
G1 X96.537 Y99.850 E252.87383
G0 F10800 X96.887 Y100.200
G1 F900 X96.887 Y129.150 E253.54785
G1 X99.837 Y129.150 E253.61653
G1 X99.837 Y100.200 E254.29055
G1 X96.887 Y100.200 E254.35923
G0 F10800 X97.237 Y100.550
G1 F900 X97.237 Y128.800 E255.01695
G1 X99.487 Y128.800 E255.06934
G1 X99.487 Y100.550 E255.72706
G1 X97.237 Y100.550 E255.77944
G0 F10800 X97.587 Y100.900
G1 F900 X97.587 Y128.450 E256.42086
G1 X99.137 Y128.450 E256.45695
G1 X99.137 Y100.900 E257.09837
G1 X97.587 Y100.900 E257.13446
G0 F10800 X97.937 Y101.250
G1 F900 X97.937 Y128.100 E257.75958
G1 X98.787 Y128.100 E257.77937
G1 X98.787 Y101.250 E258.40450
G1 X97.937 Y101.250 E258.42429
G0 F10800 X132.537 Y99.850
G1 F900 X132.537 Y129.500 E259.11460
G1 X136.187 Y129.500 E259.19958
G1 X136.187 Y99.850 E259.88989
G1 X132.537 Y99.850 E259.97487
G0 F10800 X132.887 Y100.200
G1 F900 X132.887 Y129.150 E260.64889
G1 X135.837 Y129.150 E260.71757
G1 X135.837 Y100.200 E261.39159
G1 X132.887 Y100.200 E261.46027
G0 F10800 X133.237 Y100.550
G1 F900 X133.237 Y128.800 E262.11799
G1 X135.487 Y128.800 E262.17037
G1 X135.487 Y100.550 E262.82809
G1 X133.237 Y100.550 E262.88048
G0 F10800 X133.587 Y100.900
G1 F900 X133.587 Y128.450 E263.52190
G1 X135.137 Y128.450 E263.55799
G1 X135.137 Y100.900 E264.19941
G1 X133.587 Y100.900 E264.23550
G0 F10800 X133.937 Y101.250
G1 F900 X133.937 Y128.100 E264.86062
G1 X134.787 Y128.100 E264.88041
G1 X134.787 Y101.250 E265.50553
G1 X133.937 Y101.250 E265.52532
G0 F10800 X133.937 Y99.225
G0 X131.837 Y99.150
;TYPE:WALL-INNER
G1 F900 X131.837 Y130.200 E266.24823
G1 X136.887 Y130.200 E266.36581
G1 X136.887 Y99.150 E267.08872
G1 X131.837 Y99.150 E267.20629
G0 F10800 X140.460 Y90.424
G1 F900 X140.530 Y90.515 E267.20896
G1 X141.064 Y90.903 E267.22433
G1 X141.160 Y90.976 E267.22714
G1 X141.811 Y91.187 E267.24307
G1 X141.918 Y91.222 E267.24569
G1 X142.711 Y91.222 E267.26416
G1 X143.357 Y91.013 E267.27997
G1 X143.466 Y90.976 E267.28265
G1 X144.013 Y90.579 E267.29838
G1 X144.107 Y90.511 E267.30108
G1 X144.496 Y89.973 E267.31654
G1 X144.569 Y89.877 E267.31935
G1 X144.779 Y89.231 E267.33516
G1 X144.816 Y89.120 E267.33789
G1 X144.816 Y88.326 E267.35637
G1 X144.569 Y87.569 E267.37491
G1 X144.106 Y86.932 E267.39325
G1 X143.464 Y86.466 E267.41172
G1 X142.711 Y86.222 E267.43014
G1 X141.920 Y86.222 E267.44856
G1 X141.166 Y86.466 E267.46701
G1 X140.525 Y86.932 E267.48546
G1 X140.059 Y87.573 E267.50391
G1 X139.815 Y88.326 E267.52234
G1 X139.815 Y89.118 E267.54078
G1 X140.024 Y89.764 E267.55659
G1 X140.061 Y89.873 E267.55927
G1 X140.460 Y90.424 E267.57511
G0 F10800 X139.793 Y89.121
G0 X140.039 Y87.563
G0 X139.624 Y77.580
G1 F900 X153.458 Y91.414 E268.03060
G1 X153.458 Y137.937 E269.11376
G1 X139.624 Y151.771 E269.56925
G1 X93.101 Y151.771 E270.65241
G1 X79.267 Y137.937 E271.10790
G1 X79.267 Y91.414 E272.19105
G1 X93.101 Y77.580 E272.64655
G1 X139.624 Y77.580 E273.72970
G0 F10800 X144.838 Y88.322
G0 X144.518 Y89.985
G0 X148.201 Y102.267
G1 F900 X147.494 Y102.627 E273.74818
G1 X146.935 Y103.188 E273.76661
G1 X146.576 Y103.893 E273.78503
G1 X146.451 Y104.675 E273.80347
G1 X146.558 Y105.345 E273.81927
G1 X146.576 Y105.458 E273.82193
G1 X146.884 Y106.066 E273.83780
G1 X146.939 Y106.167 E273.84048
G1 X147.495 Y106.723 E273.85878
G1 X148.089 Y107.025 E273.87430
G1 X148.195 Y107.082 E273.87710
G1 X148.870 Y107.189 E273.89301
G1 X148.982 Y107.207 E273.89565
G1 X149.653 Y107.100 E273.91147
G1 X149.766 Y107.082 E273.91414
G1 X150.373 Y106.773 E273.93000
G1 X150.474 Y106.719 E273.93266
G1 X151.031 Y106.163 E273.95098
G1 X151.333 Y105.569 E273.96650
G1 X151.390 Y105.463 E273.96930
G1 X151.497 Y104.788 E273.98521
G1 X151.515 Y104.676 E273.98785
G1 X151.390 Y103.893 E274.00631
G1 X151.031 Y103.188 E274.02473
G1 X150.470 Y102.627 E274.04321
G1 X149.765 Y102.268 E274.06163
G1 X148.983 Y102.143 E274.08006
G1 X148.201 Y102.267 E274.09850
G0 F10800 X146.917 Y103.175
G0 X146.429 Y104.675
G0 X146.921 Y106.180
G0 X148.201 Y112.267
G1 F900 X147.494 Y112.627 E274.11697
G1 X146.935 Y113.188 E274.13541
G1 X146.576 Y113.893 E274.15383
G1 X146.451 Y114.675 E274.17226
G1 X146.558 Y115.345 E274.18806
G1 X146.576 Y115.458 E274.19072
G1 X146.884 Y116.066 E274.20659
G1 X146.939 Y116.167 E274.20927
G1 X147.495 Y116.723 E274.22758
G1 X148.089 Y117.025 E274.24309
G1 X148.195 Y117.082 E274.24589
G1 X148.870 Y117.189 E274.26181
G1 X148.982 Y117.207 E274.26445
G1 X149.653 Y117.100 E274.28027
G1 X149.766 Y117.082 E274.28293
G1 X150.373 Y116.773 E274.29879
G1 X150.474 Y116.719 E274.30145
G1 X151.031 Y116.163 E274.31978
G1 X151.333 Y115.569 E274.33529
G1 X151.390 Y115.463 E274.33809
G1 X151.497 Y114.788 E274.35401
G1 X151.515 Y114.676 E274.35665
G1 X151.390 Y113.893 E274.37511
G1 X151.031 Y113.188 E274.39353
G1 X150.470 Y112.627 E274.41200
G1 X149.765 Y112.268 E274.43042
G1 X148.983 Y112.143 E274.44886
G1 X148.201 Y112.267 E274.46729
G0 F10800 X146.917 Y113.175
G0 X146.429 Y114.675
G0 X146.921 Y116.180
G0 X148.201 Y122.267
G1 F900 X147.494 Y122.627 E274.48576
G1 X146.935 Y123.188 E274.50420
G1 X146.576 Y123.893 E274.52262
G1 X146.451 Y124.675 E274.54106
G1 X146.558 Y125.345 E274.55685
G1 X146.576 Y125.458 E274.55952
G1 X146.884 Y126.066 E274.57539
G1 X146.939 Y126.167 E274.57806
G1 X147.495 Y126.723 E274.59637
G1 X148.089 Y127.025 E274.61188
G1 X148.195 Y127.082 E274.61469
G1 X148.870 Y127.189 E274.63060
G1 X148.982 Y127.207 E274.63324
G1 X149.653 Y127.100 E274.64906
G1 X149.766 Y127.082 E274.65172
G1 X150.373 Y126.773 E274.66758
G1 X150.474 Y126.719 E274.67025
G1 X151.031 Y126.163 E274.68857
G1 X151.333 Y125.569 E274.70409
G1 X151.390 Y125.463 E274.70689
G1 X151.497 Y124.788 E274.72280
G1 X151.515 Y124.676 E274.72544
G1 X151.390 Y123.893 E274.74390
G1 X151.031 Y123.188 E274.76232
G1 X150.470 Y122.627 E274.78079
G1 X149.765 Y122.268 E274.79921
