;Generated with Cura_SteamEngine 14.09
G28 ; Home extruder
G1 Z5 F100
G1 Z0 F100
M106 S165 ; Turn on fan
G90 ; Absolute positioning
M82 ; Extruder in absolute mode
; Activate all used extruder
M104 T0 S200
G92 E0 ; Reset extruder position
; Wait for all used extruders to reach temperature
M109 T0 S200
T0
M83
G1 E10 F100
M82
G92 E0 ; Reset extruder position
M117 Vertex is printing
G1 F1000 Z5
;Layer count: 123
;LAYER:0
M106 S127
G0 F10800 X96.512 Y58.009 Z0.200
;TYPE:SKIRT
G1 F900 X109.585 Y44.936 E0.43044
G1 X137.589 Y44.936 E1.08243
G1 X150.662 Y58.009 E1.51287
G1 X150.662 Y69.936 E1.79056
G1 X152.067 Y69.936 E1.82327
G1 X173.282 Y91.151 E2.52179
G1 X173.282 Y148.112 E3.84796
G1 X155.662 Y165.732 E4.42811
G1 X155.662 Y181.254 E4.78950
G1 X142.589 Y194.327 E5.21994
G1 X104.585 Y194.327 E6.10475
G1 X91.512 Y181.254 E6.53519
G1 X91.512 Y165.733 E6.89655
G1 X73.891 Y148.112 E7.47674
G1 X73.891 Y91.151 E8.80291
G1 X95.106 Y69.936 E9.50143
G1 X96.512 Y69.936 E9.53417
G1 X96.512 Y58.009 E9.81185
G0 F10800 X96.862 Y58.154
G1 F900 X109.730 Y45.286 E10.23554
G1 X137.444 Y45.286 E10.88078
G1 X150.312 Y58.154 E11.30447
G1 X150.312 Y70.286 E11.58693
G1 X151.922 Y70.286 E11.62442
G1 X172.932 Y91.296 E12.31619
G1 X172.932 Y147.967 E13.63561
G1 X155.312 Y165.587 E14.21576
G1 X155.312 Y181.109 E14.57715
G1 X142.444 Y193.977 E15.00084
G1 X104.730 Y193.977 E15.87890
G1 X91.862 Y181.109 E16.30259
G1 X91.862 Y165.588 E16.66395
G1 X74.241 Y147.967 E17.24413
G1 X74.241 Y91.296 E18.56355
G1 X95.251 Y70.286 E19.25533
G1 X96.862 Y70.286 E19.29283
G1 X96.862 Y58.154 E19.57529
G0 F10800 X97.212 Y58.299
G1 F900 X109.875 Y45.636 E19.99223
G1 X137.299 Y45.636 E20.63072
G1 X149.962 Y58.299 E21.04766
G1 X149.962 Y70.636 E21.33489
G1 X151.777 Y70.636 E21.37715
G1 X172.582 Y91.441 E22.06217
G1 X172.582 Y147.822 E23.37484
G1 X154.962 Y165.442 E23.95499
G1 X154.962 Y180.964 E24.31638
G1 X142.299 Y193.627 E24.73332
G1 X104.875 Y193.627 E25.60463
G1 X92.212 Y180.964 E26.02157
G1 X92.212 Y165.443 E26.38293
G1 X74.591 Y147.822 E26.96311
G1 X74.591 Y91.441 E28.27578
G1 X95.396 Y70.636 E28.96080
G1 X97.212 Y70.636 E29.00308
G1 X97.212 Y58.299 E29.29032
G0 F10800 X97.562 Y58.444
G1 F900 X110.020 Y45.986 E29.70051
G1 X137.154 Y45.986 E30.33224
G1 X149.612 Y58.444 E30.74243
G1 X149.612 Y70.986 E31.03444
G1 X151.632 Y70.986 E31.08147
G1 X172.232 Y91.586 E31.75974
G1 X172.232 Y147.677 E33.06565
G1 X154.612 Y165.297 E33.64581
G1 X154.612 Y180.819 E34.00719
G1 X142.154 Y193.277 E34.41738
G1 X105.020 Y193.277 E35.28194
G1 X92.562 Y180.819 E35.69213
G1 X92.562 Y165.298 E36.05349
G1 X74.941 Y147.677 E36.63368
G1 X74.941 Y91.586 E37.93959
G1 X95.541 Y70.986 E38.61787
G1 X97.562 Y70.986 E38.66492
G1 X97.562 Y58.444 E38.95692
G0 F10800 X97.912 Y58.589
G1 F900 X110.165 Y46.336 E39.36036
G1 X137.009 Y46.336 E39.98535
G1 X149.262 Y58.589 E40.38879
G1 X149.262 Y71.336 E40.68557
G1 X151.487 Y71.336 E40.73737
G1 X171.882 Y91.731 E41.40889
G1 X171.882 Y147.532 E42.70806
G1 X154.262 Y165.152 E43.28821
G1 X154.262 Y180.674 E43.64959
G1 X142.009 Y192.927 E44.05303
G1 X105.165 Y192.927 E44.91084
G1 X92.912 Y180.674 E45.31428
G1 X92.912 Y165.153 E45.67564
G1 X75.291 Y147.532 E46.25583
G1 X75.291 Y91.731 E47.55499
G1 X95.686 Y71.336 E48.22652
G1 X97.912 Y71.336 E48.27834
G1 X97.912 Y58.589 E48.57512
G0 F10800 X98.262 Y58.734
G1 F900 X110.310 Y46.686 E48.97181
G1 X136.864 Y46.686 E49.59004
G1 X148.912 Y58.734 E49.98673
G1 X148.912 Y71.686 E50.28828
G1 X151.342 Y71.686 E50.34486
G1 X171.532 Y91.876 E51.00963
G1 X171.532 Y147.387 E52.30204
G1 X153.912 Y165.007 E52.88220
G1 X153.912 Y180.529 E53.24358
G1 X141.864 Y192.577 E53.64027
G1 X105.310 Y192.577 E54.49133
G1 X93.262 Y180.529 E54.88802
G1 X93.262 Y165.008 E55.24938
G1 X75.641 Y147.387 E55.82956
G1 X75.641 Y91.876 E57.12198
G1 X95.831 Y71.686 E57.78675
G1 X98.262 Y71.686 E57.84335
G1 X98.262 Y58.734 E58.14490
G0 F10800 X98.612 Y58.879
G1 F900 X110.455 Y47.036 E58.53484
G1 X136.719 Y47.036 E59.14632
G1 X148.562 Y58.879 E59.53626
G1 X148.562 Y72.036 E59.84258
G1 X151.197 Y72.036 E59.90393
G1 X171.182 Y92.021 E60.56195
G1 X171.182 Y147.242 E61.84762
G1 X153.562 Y164.862 E62.42777
G1 X153.562 Y180.384 E62.78915
G1 X141.719 Y192.227 E63.17909
G1 X105.455 Y192.227 E64.02340
G1 X93.612 Y180.384 E64.41334
G1 X93.612 Y164.863 E64.77470
G1 X75.991 Y147.242 E65.35489
G1 X75.991 Y92.021 E66.64055
G1 X95.976 Y72.036 E67.29857
G1 X98.612 Y72.036 E67.35994
G1 X98.612 Y58.879 E67.66626
G0 F10800 X98.962 Y59.024
G1 F900 X110.600 Y47.386 E68.04945
G1 X136.574 Y47.386 E68.65418
G1 X148.212 Y59.024 E69.03737
G1 X148.212 Y72.386 E69.34847
G1 X151.052 Y72.386 E69.41459
G1 X170.832 Y92.166 E70.06586
G1 X170.832 Y147.097 E71.34477
G1 X153.212 Y164.717 E71.92493
G1 X153.212 Y180.239 E72.28631
G1 X141.574 Y191.877 E72.66950
G1 X105.600 Y191.877 E73.50705
G1 X93.962 Y180.239 E73.89024
G1 X93.962 Y164.718 E74.25160
G1 X76.341 Y147.097 E74.83179
G1 X76.341 Y92.166 E76.11070
G1 X96.121 Y72.386 E76.76197
G1 X98.962 Y72.386 E76.82812
G1 X98.962 Y59.024 E77.13921
G0 F10800 X99.312 Y59.169
G1 F900 X110.745 Y47.736 E77.51565
G1 X136.429 Y47.736 E78.11363
G1 X147.862 Y59.169 E78.49007
G1 X147.862 Y72.736 E78.80594
G1 X150.907 Y72.736 E78.87684
G1 X170.482 Y92.311 E79.52136
G1 X170.482 Y146.952 E80.79352
G1 X152.862 Y164.572 E81.37367
G1 X152.862 Y180.094 E81.73505
G1 X141.429 Y191.527 E82.11150
G1 X105.745 Y191.527 E82.94229
G1 X94.312 Y180.094 E83.31873
G1 X94.312 Y164.573 E83.68010
G1 X76.691 Y146.952 E84.26028
G1 X76.691 Y92.311 E85.53244
G1 X96.266 Y72.736 E86.17696
G1 X99.312 Y72.736 E86.24788
G1 X99.312 Y59.169 E86.56375
G0 F10800 X99.662 Y59.314
G1 F900 X110.890 Y48.086 E86.93344
G1 X136.284 Y48.086 E87.52467
G1 X147.512 Y59.314 E87.89436
G1 X147.512 Y73.086 E88.21500
G1 X150.762 Y73.086 E88.29066
G1 X170.132 Y92.456 E88.92844
G1 X170.132 Y146.807 E90.19384
G1 X152.512 Y164.427 E90.77400
G1 X152.512 Y179.949 E91.13538
G1 X141.284 Y191.177 E91.50507
G1 X105.890 Y191.177 E92.32912
G1 X94.662 Y179.949 E92.69881
G1 X94.662 Y164.428 E93.06017
G1 X77.041 Y146.807 E93.64036
G1 X77.041 Y92.456 E94.90576
G1 X96.411 Y73.086 E95.54354
G1 X99.662 Y73.086 E95.61923
G1 X99.662 Y59.314 E95.93987
G0 F10800 X100.012 Y59.459
G1 F900 X111.035 Y48.436 E96.30281
G1 X136.139 Y48.436 E96.88728
G1 X147.162 Y59.459 E97.25023
G1 X147.162 Y73.436 E97.57564
G1 X150.617 Y73.436 E97.65608
G1 X169.782 Y92.601 E98.28710
G1 X169.782 Y146.662 E99.54576
G1 X152.162 Y164.282 E100.12591
G1 X152.162 Y179.804 E100.48730
G1 X141.139 Y190.827 E100.85024
G1 X106.035 Y190.827 E101.66753
G1 X95.012 Y179.804 E102.03047
G1 X95.012 Y164.283 E102.39183
G1 X77.391 Y146.662 E102.97202
G1 X77.391 Y92.601 E104.23067
G1 X96.556 Y73.436 E104.86170
G1 X100.012 Y73.436 E104.94216
G1 X100.012 Y59.459 E105.26758
G0 F10800 X100.362 Y59.604
G1 F900 X111.180 Y48.786 E105.62377
G1 X135.994 Y48.786 E106.20149
G1 X146.812 Y59.604 E106.55768
G1 X146.812 Y73.786 E106.88787
G1 X150.472 Y73.786 E106.97308
G1 X169.432 Y92.746 E107.59735
G1 X169.432 Y146.517 E108.84926
G1 X151.812 Y164.137 E109.42941
G1 X151.812 Y179.659 E109.79079
G1 X140.994 Y190.477 E110.14699
G1 X106.180 Y190.477 E110.95753
G1 X95.362 Y179.659 E111.31372
G1 X95.362 Y164.138 E111.67508
G1 X77.741 Y146.517 E112.25527
G1 X77.741 Y92.746 E113.50717
G1 X96.701 Y73.786 E114.13144
G1 X100.362 Y73.786 E114.21668
G1 X100.362 Y59.604 E114.54687
G0 F10800 X100.712 Y59.749
G1 F900 X111.325 Y49.136 E114.89631
G1 X135.849 Y49.136 E115.46728
G1 X146.462 Y59.749 E115.81672
G1 X146.462 Y74.136 E116.15168
G1 X150.327 Y74.136 E116.24167
G1 X169.082 Y92.891 E116.85919
G1 X169.082 Y146.372 E118.10434
G1 X151.462 Y163.992 E118.68449
G1 X151.462 Y179.514 E119.04588
G1 X140.849 Y190.127 E119.39532
G1 X106.325 Y190.127 E120.19911
G1 X95.712 Y179.514 E120.54855
G1 X95.712 Y163.993 E120.90991
G1 X78.091 Y146.372 E121.49010
G1 X78.091 Y92.891 E122.73525
G1 X96.846 Y74.136 E123.35277
G1 X100.712 Y74.136 E123.44278
G1 X100.712 Y59.749 E123.77774
G0 F10800 X101.062 Y59.894
G1 F900 X111.470 Y49.486 E124.12044
G1 X135.704 Y49.486 E124.68465
G1 X146.112 Y59.894 E125.02735
G1 X146.112 Y74.486 E125.36708
G1 X150.182 Y74.486 E125.46184
G1 X168.732 Y93.036 E126.07261
G1 X168.732 Y146.227 E127.31101
G1 X151.112 Y163.847 E127.89116
G1 X151.112 Y179.369 E128.25255
G1 X140.704 Y189.777 E128.59524
G1 X106.470 Y189.777 E129.39228
G1 X96.062 Y179.369 E129.73497
G1 X96.062 Y163.848 E130.09633
G1 X78.441 Y146.227 E130.67652
G1 X78.441 Y93.036 E131.91492
G1 X96.991 Y74.486 E132.52569
G1 X101.062 Y74.486 E132.62047
G1 X101.062 Y59.894 E132.96020
G0 F10800 X101.412 Y60.039
G1 F900 X111.615 Y49.836 E133.29615
G1 X135.559 Y49.836 E133.85361
G1 X145.762 Y60.039 E134.18956
G1 X145.762 Y74.836 E134.53406
G1 X150.037 Y74.836 E134.63359
G1 X168.382 Y93.181 E135.23762
G1 X168.382 Y146.082 E136.46926
G1 X150.762 Y163.702 E137.04942
G1 X150.762 Y179.224 E137.41080
G1 X140.559 Y189.427 E137.74674
G1 X106.615 Y189.427 E138.53703
G1 X96.412 Y179.224 E138.87297
G1 X96.412 Y163.703 E139.23434
G1 X78.791 Y146.082 E139.81452
G1 X78.791 Y93.181 E141.04617
G1 X97.136 Y74.836 E141.65019
G1 X101.412 Y74.836 E141.74975
G1 X101.412 Y60.039 E142.09425
G0 F10800 X101.762 Y60.184
G1 F900 X111.760 Y50.186 E142.42344
G1 X135.414 Y50.186 E142.97416
G1 X145.412 Y60.184 E143.30335
G1 X145.412 Y75.186 E143.65263
G1 X149.892 Y75.186 E143.75693
G1 X168.032 Y93.326 E144.35421
G1 X168.032 Y145.937 E145.57910
G1 X150.412 Y163.557 E146.15926
G1 X150.412 Y179.079 E146.52064
G1 X140.414 Y189.077 E146.84983
G1 X106.760 Y189.077 E147.63337
G1 X96.762 Y179.079 E147.96256
G1 X96.762 Y163.558 E148.32392
G1 X79.141 Y145.937 E148.90411
G1 X79.141 Y93.326 E150.12900
G1 X97.281 Y75.186 E150.72628
G1 X101.762 Y75.186 E150.83061
G1 X101.762 Y60.184 E151.17988
G0 F10800 X102.112 Y60.329
G1 F900 X111.905 Y50.536 E151.50233
G1 X135.269 Y50.536 E152.04629
G1 X145.062 Y60.329 E152.36873
G1 X145.062 Y75.536 E152.72278
G1 X149.747 Y75.536 E152.83186
G1 X167.682 Y93.471 E153.42239
G1 X167.682 Y145.792 E154.64053
G1 X150.062 Y163.412 E155.22068
G1 X150.062 Y178.934 E155.58207
G1 X140.269 Y188.727 E155.90451
G1 X106.905 Y188.727 E156.68129
G1 X97.112 Y178.934 E157.00374
G1 X97.112 Y163.413 E157.36510
G1 X79.491 Y145.792 E157.94528
G1 X79.491 Y93.471 E159.16343
G1 X97.426 Y75.536 E159.75395
G1 X102.112 Y75.536 E159.86305
G1 X102.112 Y60.329 E160.21710
G0 F10800 X102.462 Y60.474
G1 F900 X112.050 Y50.886 E160.53280
G1 X135.124 Y50.886 E161.07001
G1 X144.712 Y60.474 E161.38570
G1 X144.712 Y75.886 E161.74452
G1 X149.602 Y75.886 E161.85837
G1 X167.332 Y93.616 E162.44215
G1 X167.332 Y145.647 E163.65354
G1 X149.712 Y163.267 E164.23369
G1 X149.712 Y178.789 E164.59508
G1 X140.124 Y188.377 E164.91077
G1 X107.050 Y188.377 E165.68080
G1 X97.462 Y178.789 E165.99649
G1 X97.462 Y163.268 E166.35786
G1 X79.841 Y145.647 E166.93804
G1 X79.841 Y93.616 E168.14943
G1 X97.571 Y75.886 E168.73321
G1 X102.462 Y75.886 E168.84708
G1 X102.462 Y60.474 E169.20591
G0 F10800 X102.812 Y60.619
G1 F900 X112.195 Y51.236 E169.51485
G1 X134.979 Y51.236 E170.04531
G1 X144.362 Y60.619 E170.35425
G1 X144.362 Y76.236 E170.71785
G1 X149.457 Y76.236 E170.83647
G1 X166.982 Y93.761 E171.41350
G1 X166.982 Y145.502 E172.61813
G1 X149.457 Y163.027 E173.19516
G1 X149.362 Y163.027 E173.19737
G1 X149.362 Y178.644 E173.56097
G1 X139.979 Y188.027 E173.86991
G1 X107.195 Y188.027 E174.63319
G1 X97.812 Y178.644 E174.94213
G1 X97.812 Y163.027 E175.30573
G1 X97.716 Y163.027 E175.30797
G1 X80.191 Y145.502 E175.88499
G1 X80.191 Y93.761 E177.08963
G1 X97.716 Y76.236 E177.66666
G1 X102.812 Y76.236 E177.78530
G1 X102.812 Y60.619 E178.14890
G0 F10800 X103.162 Y60.764
G1 F900 X112.340 Y51.586 E178.45109
G1 X134.834 Y51.586 E178.97480
G1 X144.012 Y60.764 E179.27699
G1 X144.012 Y76.586 E179.64536
G1 X149.312 Y76.586 E179.76876
G1 X166.632 Y93.906 E180.33903
G1 X166.632 Y145.357 E181.53692
G1 X149.312 Y162.677 E182.10720
G1 X149.012 Y162.677 E182.11418
G1 X149.012 Y178.499 E182.48255
G1 X139.834 Y187.677 E182.78474
G1 X107.340 Y187.677 E183.54127
G1 X98.162 Y178.499 E183.84347
G1 X98.162 Y162.677 E184.21183
G1 X97.861 Y162.677 E184.21884
G1 X80.541 Y145.357 E184.78912
G1 X80.541 Y93.906 E185.98701
G1 X97.861 Y76.586 E186.55728
G1 X103.162 Y76.586 E186.68070
G1 X103.162 Y60.764 E187.04907
G0 F10800 X103.512 Y60.909
G1 F900 X112.485 Y51.936 E187.34451
G1 X134.689 Y51.936 E187.86147
G1 X143.662 Y60.909 E188.15691
G1 X143.662 Y76.936 E188.53005
G1 X149.167 Y76.936 E188.65822
G1 X166.282 Y94.051 E189.22175
G1 X166.282 Y145.212 E190.41288
G1 X149.167 Y162.327 E190.97641
G1 X148.662 Y162.327 E190.98817
G1 X148.662 Y178.354 E191.36131
G1 X139.689 Y187.327 E191.65675
G1 X107.485 Y187.327 E192.40653
G1 X98.512 Y178.354 E192.70197
G1 X98.512 Y162.327 E193.07511
G1 X98.006 Y162.327 E193.08690
G1 X80.891 Y145.212 E193.65042
G1 X80.891 Y94.051 E194.84156
G1 X98.006 Y76.936 E195.40508
G1 X103.512 Y76.936 E195.53327
G1 X103.512 Y60.909 E195.90642
G0 F10800 X103.862 Y61.054
G1 F900 X112.630 Y52.286 E196.19511
G1 X134.544 Y52.286 E196.70531
G1 X143.312 Y61.054 E196.99401
G1 X143.312 Y77.286 E197.37192
G1 X149.022 Y77.286 E197.50486
G1 X165.932 Y94.196 E198.06164
G1 X165.932 Y145.067 E199.24602
G1 X149.022 Y161.977 E199.80280
G1 X148.312 Y161.977 E199.81933
G1 X148.312 Y178.209 E200.19724
G1 X139.544 Y186.977 E200.48594
G1 X107.630 Y186.977 E201.22896
G1 X98.862 Y178.209 E201.51766
G1 X98.862 Y161.977 E201.89557
G1 X98.151 Y161.977 E201.91213
G1 X81.241 Y145.067 E202.46890
G1 X81.241 Y94.196 E203.65328
G1 X98.151 Y77.286 E204.21006
G1 X103.862 Y77.286 E204.34303
G1 X103.862 Y61.054 E204.72094
G0 F10800 X104.212 Y61.199
G1 F900 X112.775 Y52.636 E205.00288
G1 X134.399 Y52.636 E205.50634
G1 X142.962 Y61.199 E205.78828
G1 X142.962 Y77.636 E206.17097
G1 X148.877 Y77.636 E206.30868
G1 X165.582 Y94.341 E206.85871
G1 X165.582 Y144.922 E208.03634
G1 X148.877 Y161.627 E208.58637
G1 X147.962 Y161.627 E208.60767
G1 X147.962 Y178.064 E208.99036
G1 X139.399 Y186.627 E209.27230
G1 X107.775 Y186.627 E210.00857
G1 X99.212 Y178.064 E210.29052
G1 X99.212 Y161.627 E210.67321
G1 X98.296 Y161.627 E210.69453
G1 X81.591 Y144.922 E211.24456
G1 X81.591 Y94.341 E212.42219
G1 X98.296 Y77.636 E212.97222
G1 X104.212 Y77.636 E213.10995
G1 X104.212 Y61.199 E213.49264
G0 F10800 X104.562 Y61.344
G1 F900 X112.920 Y52.986 E213.76784
G1 X134.254 Y52.986 E214.26454
G1 X142.612 Y61.344 E214.53973
G1 X142.612 Y77.986 E214.92719
G1 X148.732 Y77.986 E215.06968
G1 X165.232 Y94.486 E215.61295
G1 X165.232 Y144.777 E216.78383
G1 X148.732 Y161.277 E217.32711
G1 X147.612 Y161.277 E217.35319
G1 X147.612 Y177.919 E217.74065
G1 X139.254 Y186.277 E218.01584
G1 X107.920 Y186.277 E218.74536
G1 X99.562 Y177.919 E219.02056
G1 X99.562 Y161.277 E219.40802
G1 X98.441 Y161.277 E219.43412
G1 X81.941 Y144.777 E219.97739
G1 X81.941 Y94.486 E221.14827
G1 X98.441 Y77.986 E221.69155
G1 X104.562 Y77.986 E221.83406
G1 X104.562 Y61.344 E222.22152
G0 F10800 X104.912 Y61.489
G1 F900 X113.065 Y53.336 E222.48996
G1 X134.109 Y53.336 E222.97991
G1 X142.262 Y61.489 E223.24836
G1 X142.262 Y78.336 E223.64059
G1 X148.587 Y78.336 E223.78785
G1 X164.882 Y94.631 E224.32438
G1 X164.882 Y144.632 E225.48850
G1 X148.587 Y160.927 E226.02503
G1 X147.262 Y160.927 E226.05588
G1 X147.262 Y177.774 E226.44811
G1 X139.109 Y185.927 E226.71656
G1 X108.065 Y185.927 E227.43933
G1 X99.912 Y177.774 E227.70777
G1 X99.912 Y160.927 E228.10001
G1 X98.586 Y160.927 E228.13088
G1 X82.291 Y144.632 E228.66740
G1 X82.291 Y94.631 E229.83153
G1 X98.586 Y78.336 E230.36806
G1 X104.912 Y78.336 E230.51534
G1 X104.912 Y61.489 E230.90757
G0 F10800 X105.262 Y61.634
G1 F900 X113.210 Y53.686 E231.16927
G1 X133.964 Y53.686 E231.65247
G1 X141.912 Y61.634 E231.91416
G1 X141.912 Y78.686 E232.31117
G1 X148.442 Y78.686 E232.46320
G1 X164.532 Y94.776 E232.99298
G1 X164.532 Y144.487 E234.15035
G1 X148.442 Y160.577 E234.68013
G1 X146.912 Y160.577 E234.71575
G1 X146.912 Y177.629 E235.11276
G1 X138.964 Y185.577 E235.37445
G1 X108.210 Y185.577 E236.09047
G1 X100.262 Y177.629 E236.35216
G1 X100.262 Y160.577 E236.74917
G1 X98.731 Y160.577 E236.78482
